X:1
T:The Road To Ballymac x2
L:1/8
Q:1/4=180
M:4/4
K:G
|:"G"!mf! z2 .g2 z2 .g2 | z2 .g2"C" z2 .d2 |"G" g2 z2"C" z4 |"G" z8"D7" |
"G"z2 .b2 z2 .g2 |"G" z2 .b2"C" z2 .g2 |"C/D"gg z2 z2 gg |1"D" z4 a4 :|
|2 "D"z4"G" a4 
|:"G"b2 .b2"Em" z .b3 |"C" .g2 z a-"D7" a4 |"G" b2 .b2"Am" z b3 |"C".c'2 z c'-"D7" c'4 |
"G"b2 .b2"Em" z b3 |"C" .g2 z c'-"D7" c'4 |"G" .d'2 z c'-"C" c'4 |1"D7" .c'2 z2"G" b4 :|
|2 "D7".c'2 z2"G" b4 
